X: 8562
T: Cro Na nGabhar
R: jig
M: 6/8
K: Gmajor
d|Bde dBG|BdB d2c|Bde dBG|agf e2d|
Bde dBG|BdB d2c|BAG Agb|agf e2:|
g|dBB gBB|bBB d2e|dBB gBB|agf e2g|
dBB gBB|bBB d2c|BAG Agb|agf e2g|
dBB gBB|bBB d2e|dBB gBB|agf e2g|
def gab|agf edc|BAG Agb|agf e2||

